resources/icons/16px/waterfall-chart.svg

<svg xmlns="http://www.w3.org/2000/svg" viewBox="0 0 16 16">
  <path d="M8 7c.55 0 1-.45 1-1s-.45-1-1-1-1 .45-1 1 .45 1 1 1m-4 4h1c.55 0 1-.45 1-1V8c0-.55-.45-1-1-1H4c-.55 0-1 .45-1 1v2c0 .55.45 1 1 1m7-6c.55 0 1-.45 1-1V3c0-.55-.45-1-1-1s-1 .45-1 1v1c0 .55.45 1 1 1m4-3h-1c-.55 0-1 .45-1 1v7c0 .55.45 1 1 1h1c.55 0 1-.45 1-1V3c0-.55-.45-1-1-1m0 10H2V3c0-.55-.45-1-1-1s-1 .45-1 1v10c0 .55.45 1 1 1h14c.55 0 1-.45 1-1s-.45-1-1-1"/>
</svg>

<?xml version="1.0" encoding="utf-8"?>
<!-- Generator: Adobe Illustrator 18.1.0, SVG Export Plug-In . SVG Version: 6.00 Build 0)  -->
<svg version="1.1" id="Layer_1" xmlns="http://www.w3.org/2000/svg" xmlns:xlink="http://www.w3.org/1999/xlink" x="0px" y="0px"
	 viewBox="0 0 16 16" enable-background="new 0 0 16 16" xml:space="preserve">
<g id="Rounded_Rectangle_5_copy_3">
	<g>
		<path d="M8,7c0.55,0,1-0.45,1-1c0-0.55-0.45-1-1-1S7,5.45,7,6C7,6.55,7.45,7,8,7z M4,11h1c0.55,0,1-0.45,1-1V8c0-0.55-0.45-1-1-1
			H4C3.45,7,3,7.45,3,8v2C3,10.55,3.45,11,4,11z M11,5c0.55,0,1-0.45,1-1V3c0-0.55-0.45-1-1-1s-1,0.45-1,1v1C10,4.55,10.45,5,11,5z
			 M15,2h-1c-0.55,0-1,0.45-1,1v7c0,0.55,0.45,1,1,1h1c0.55,0,1-0.45,1-1V3C16,2.45,15.55,2,15,2z M15,12H2V3c0-0.55-0.45-1-1-1
			S0,2.45,0,3v10c0,0.55,0.45,1,1,1h14c0.55,0,1-0.45,1-1C16,12.45,15.55,12,15,12z"/>
	</g>
</g>
</svg>
